svg/logo/bluesky_social_line.svg

<svg xmlns="http://www.w3.org/2000/svg" width="24" height="24" viewBox="0 0 24 24"><g fill="none" fill-rule="evenodd"><path d="M24,0 L24,24 L0,24 L0,0 L24,0 Z M12.5935,23.2578 L12.5819,23.2595 L12.5109,23.295 L12.4919,23.2987 L12.4767,23.295 L12.4057,23.2595 C12.3958,23.2564 12.387,23.259 12.3821,23.2649 L12.378,23.2758 L12.3609,23.7031 L12.3659,23.7235 L12.3769,23.7357 L12.4805,23.8097 L12.4953,23.8136 L12.5071,23.8097 L12.6107,23.7357 L12.6233,23.7197 L12.6267,23.7031 L12.6096,23.2758 C12.6076,23.2657 12.601,23.2593 12.5935,23.2578 Z M12.8584,23.1453 L12.8445,23.1473 L12.6598,23.2397 L12.6499,23.2499 L12.6472,23.2611 L12.6651,23.6906 L12.6699,23.7034 L12.6784,23.7105 L12.8793,23.8032 C12.8914,23.8069 12.9022,23.803 12.9078,23.7952 L12.9118,23.7812 L12.8777,23.1665 C12.8753,23.1546 12.8674,23.147 12.8584,23.1453 Z M12.143,23.1473 C12.1332,23.1424 12.1222,23.1453 12.1156,23.1526 L12.1099,23.1665 L12.0758,23.7812 C12.0751,23.7927 12.0828,23.8019 12.0926,23.8046 L12.1083,23.8032 L12.3092,23.7105 L12.3186,23.7024 L12.3225,23.6906 L12.3404,23.2611 L12.3372,23.2485 L12.3278,23.2397 L12.143,23.1473 Z"/><path fill="#09244B" d="M4.74692,5.10523 C4.48438,5.27941 4.29991,5.60051 4.3377,5.9974 L4.65075,9.28439 C4.79739,10.8241 6.09056,12 7.63724,12 L9.00009,12 C9.47946,12 9.8914,12.3401 9.98205,12.8109 C10.0727,13.2816 9.81656,13.7504 9.37148,13.9284 L7.03112,14.8646 C6.14557,15.2188 5.90883,16.1853 6.36691,16.7969 C6.65466,17.181 6.94259,17.5283 7.2072,17.7929 C7.44026,18.0259 7.73858,18.2782 8.0718,18.5336 C8.69087,19.0081 9.69695,18.7471 10.0129,17.7994 L11.0514,14.6837 C11.1875,14.2754 11.5697,14 12.0001,14 C12.4305,14 12.8127,14.2754 12.9488,14.6837 L13.9873,17.7994 C14.3032,18.7471 15.3093,19.0081 15.9284,18.5336 C16.2616,18.2782 16.5599,18.0259 16.793,17.7929 C17.0576,17.5283 17.3455,17.181 17.6333,16.7969 C18.0914,16.1853 17.8546,15.2188 16.9691,14.8646 L14.6287,13.9284 C14.1836,13.7504 13.9275,13.2816 14.0181,12.8109 C14.1088,12.3401 14.5207,12 15.0001,12 L16.3629,12 C17.9096,12 19.2028,10.8241 19.3494,9.28439 L19.6625,5.9974 C19.7003,5.60051 19.5158,5.27941 19.2533,5.10523 C19.0007,4.93763 18.6929,4.9116 18.3954,5.10375 C15.7501,6.81221 14.3451,8.54605 12.8945,11.4472 C12.7251,11.786 12.3789,12 12.0001,12 C11.6213,12 11.2751,11.786 11.1057,11.4472 C9.6551,8.54605 8.25012,6.81221 5.6048,5.10375 C5.30728,4.9116 4.99953,4.93763 4.74692,5.10523 Z M2.34671,6.18702 C2.13016,3.91316 4.56761,2.05304 6.68986,3.42368 C9.13038,4.99986 10.662,6.63948 12.0001,8.90076 C13.3382,6.63948 14.8698,4.99986 17.3103,3.42368 C19.4326,2.05304 21.87,3.91316 21.6535,6.18702 L21.3404,9.47401 C21.1704,11.2594 20.0754,12.7513 18.5566,13.4938 C19.8855,14.5325 20.3753,16.4722 19.234,17.9959 C18.9168,18.4194 18.5651,18.8492 18.2072,19.2071 C17.8902,19.5241 17.5178,19.8353 17.1451,20.1209 C15.2647,21.5623 12.7699,20.4718 12.09,18.4319 L12.0001,18.1622 L11.9102,18.4319 C11.2303,20.4718 8.73545,21.5623 6.85509,20.1209 C6.48237,19.8353 6.11001,19.5241 5.79298,19.2071 C5.43509,18.8492 5.08342,18.4194 4.76617,17.9959 C3.62489,16.4722 4.11472,14.5325 5.44357,13.4938 C3.92482,12.7513 2.8298,11.2594 2.65976,9.47401 L2.34671,6.18702 Z"/></g></svg>

<svg xmlns="http://www.w3.org/2000/svg" width="24" height="24"><g fill="none" fill-rule="evenodd"><path d="M24 0v24H0V0zM12.594 23.258l-.012.002-.071.035-.02.004-.014-.004-.071-.036c-.01-.003-.019 0-.024.006l-.004.01-.017.428.005.02.01.013.104.074.015.004.012-.004.104-.074.012-.016.004-.017-.017-.427c-.002-.01-.009-.017-.016-.018m.264-.113-.014.002-.184.093-.01.01-.003.011.018.43.005.012.008.008.201.092c.012.004.023 0 .029-.008l.004-.014-.034-.614c-.003-.012-.01-.02-.02-.022m-.715.002a.023.023 0 0 0-.027.006l-.006.014-.034.614c0 .012.007.02.017.024l.015-.002.201-.093.01-.008.003-.011.018-.43-.003-.012-.01-.01z"/><path fill="#09244B" d="M4.747 5.105a.944.944 0 0 0-.41.892l.314 3.287A3 3 0 0 0 7.637 12H9a1 1 0 0 1 .371 1.928l-2.34.937c-.885.354-1.122 1.32-.664 1.932.288.384.576.731.84.996.233.233.532.485.865.74.619.475 1.625.214 1.94-.734l1.04-3.115a1 1 0 0 1 1.897 0l1.038 3.115c.316.948 1.322 1.21 1.941.735.334-.256.632-.508.865-.741.265-.265.553-.612.84-.996.458-.612.222-1.578-.664-1.932l-2.34-.937A1 1 0 0 1 15 12h1.363a3 3 0 0 0 2.986-2.716l.314-3.287a.944.944 0 0 0-.41-.892.748.748 0 0 0-.858-.001c-2.645 1.708-4.05 3.442-5.5 6.343a1 1 0 0 1-1.79 0c-1.45-2.901-2.855-4.635-5.5-6.343a.748.748 0 0 0-.858.001m-2.4 1.082C2.13 3.913 4.567 2.053 6.69 3.424 9.13 5 10.662 6.639 12 8.9 13.338 6.639 14.87 5 17.31 3.424c2.123-1.371 4.56.49 4.344 2.763l-.314 3.287a5 5 0 0 1-2.783 4.02c1.329 1.039 1.818 2.978.677 4.502-.317.423-.669.853-1.027 1.211-.317.317-.69.628-1.062.914-1.88 1.441-4.375.35-5.055-1.69l-.09-.269-.09.27c-.68 2.04-3.175 3.13-5.055 1.689a10.894 10.894 0 0 1-1.062-.914 11.46 11.46 0 0 1-1.027-1.211c-1.141-1.524-.651-3.463.678-4.502a5 5 0 0 1-2.784-4.02z"/></g></svg>
